img/q.svg

<svg width="49" height="38" viewBox="0 0 49 38" fill="none" xmlns="http://www.w3.org/2000/svg">
<path d="M42.318 0.453125C41.6457 0.453125 6.87706 0.453125 6.68215 0.453125C4.826 0.453125 3.31587 1.96325 3.31587 3.8195V29.0697C3.31587 30.7114 4.53247 32.1342 6.15143 32.3936L6.75772 32.8776H41.7193L42.8487 32.3936C44.4677 32.1342 45.6843 30.7114 45.6843 29.0697C45.6843 28.2296 45.6843 4.57934 45.6843 3.81941C45.6843 1.96325 44.1742 0.453125 42.318 0.453125Z" fill="url(#paint0_linear)"/>
<path d="M6.52709 29.0698V3.8195C6.52709 1.96325 8.03722 0.453125 9.89337 0.453125C7.93316 0.453125 6.71806 0.453125 6.68215 0.453125C4.826 0.453125 3.31587 1.96325 3.31587 3.8195V29.0698C3.31587 30.7115 4.53247 32.1342 6.15144 32.3937L6.75772 32.8777H9.96894L9.36266 32.3937C7.74359 32.1342 6.52709 30.7115 6.52709 29.0698Z" fill="#FF6C4D"/>
<path d="M42.0939 6H7.10549L6.5 6.63775V28.3959C6.5 28.7295 6.76799 29 7.09861 29H41.9014C42.2319 29 42.5 28.7295 42.5 28.3959C42.5 27.8255 42.5 7.2979 42.5 6.63775L42.0939 6Z" fill="#FEFAC0"/>
<path d="M10.2531 3H7.07733C6.75846 3 6.5 3.30203 6.5 3.67452V7H10.2531L10.5 6.69232V3.21409L10.2531 3Z" fill="#FFC165"/>
<path d="M41.522 3.4375C39.9647 3.4375 11.0154 3.4375 9.78125 3.4375V7.09375H42.125V4.05405C42.125 3.71358 41.855 3.4375 41.522 3.4375Z" fill="#FFCF86"/>
<path d="M47.938 32.3936H1.06203C0.751625 32.3936 0.5 32.6476 0.5 32.9611V34.9133C0.5 36.3617 1.67366 37.5468 3.10812 37.5468H45.8919C47.3263 37.5468 48.5 36.3617 48.5 34.9133V32.9611C48.5 32.6476 48.2484 32.3936 47.938 32.3936Z" fill="url(#paint1_linear)"/>
<path d="M6.33997 34.9133V32.9611C6.33997 32.6476 6.59159 32.3936 6.902 32.3936H1.06212C0.751717 32.3936 0.500092 32.6476 0.500092 32.9611V34.9133C0.500092 36.3617 1.67375 37.5468 3.10822 37.5468H8.94819C7.51362 37.5468 6.33997 36.3617 6.33997 34.9133Z" fill="#FF6C4D"/>
<path d="M17.4987 32.3936V33.7032C17.4987 34.3469 18.0203 34.8736 18.6578 34.8736H30.3423C30.9798 34.8736 31.5013 34.3469 31.5013 33.7032V32.3936H17.4987Z" fill="#DDDDDD"/>
<path d="M30.3993 15.8071L30.1138 15.9279V20.5315L30.3993 20.6262L34.4396 22.5196V13.9136L30.3993 15.8071Z" fill="#FFC658"/>
<path d="M30.1138 17.6516V20.5317L30.3993 20.6264L34.4396 22.5199V19.6398L30.3993 17.7463L30.1138 17.6516Z" fill="#FF6C4D"/>
<path d="M38.2279 12.8944C39.1169 12.8944 39.8376 12.1737 39.8376 11.2847C39.8376 10.3957 39.1169 9.67505 38.2279 9.67505C37.3389 9.67505 36.6182 10.3957 36.6182 11.2847C36.6182 12.1737 37.3389 12.8944 38.2279 12.8944Z" fill="#FFD260"/>
<path d="M38.2279 11.2847C38.2279 10.6893 38.5521 10.1706 39.0327 9.89217C38.7957 9.75492 38.5214 9.67505 38.2279 9.67505C37.339 9.67505 36.6183 10.3957 36.6183 11.2847C36.6183 12.1738 37.339 12.8944 38.2279 12.8944C38.5214 12.8944 38.7957 12.8145 39.0327 12.6773C38.5521 12.3989 38.2279 11.8802 38.2279 11.2847Z" fill="#FF6C4D"/>
<path d="M34.4396 23.7271C34.0395 23.7271 33.7152 23.4028 33.7152 23.0028V13.4306C33.7152 13.0305 34.0395 12.7063 34.4396 12.7063C34.8396 12.7063 35.1639 13.0306 35.1639 13.4306V23.0028C35.164 23.4029 34.8396 23.7271 34.4396 23.7271Z" fill="#FFC658"/>
<path d="M28.5137 24.6878H16.4461C15.4047 24.6878 14.5604 23.8436 14.5604 22.8021V13.6313C14.5604 12.5898 15.4047 11.7456 16.4461 11.7456H28.5137C29.5552 11.7456 30.3994 12.5898 30.3994 13.6313V22.8021C30.3994 23.8435 29.5551 24.6878 28.5137 24.6878Z" fill="#FFC658"/>
<path d="M17.8763 22.7453V13.6882C17.8763 12.6153 18.746 11.7456 19.8189 11.7456H16.503C15.4302 11.7456 14.5604 12.6153 14.5604 13.6882V22.7452C14.5604 23.8181 15.4302 24.6878 16.503 24.6878H19.8189C18.746 24.6879 17.8763 23.8181 17.8763 22.7453Z" fill="#FFD260"/>
<path d="M24.7333 17.5894L21.6251 15.4699C21.1211 15.1263 20.4381 15.4872 20.4381 16.0972V20.3362C20.4381 20.9463 21.1211 21.3072 21.6251 20.9635L24.7333 18.844C25.1754 18.5427 25.1754 17.8908 24.7333 17.5894Z" fill="#E4F6FF"/>
<path d="M22.4799 20.3362V16.0972C22.4799 16.0827 22.4821 16.069 22.4829 16.0548L21.6251 15.4699C21.1211 15.1263 20.4381 15.4872 20.4381 16.0972V20.3362C20.4381 20.9463 21.1211 21.3072 21.6251 20.9635L22.4829 20.3786C22.4821 20.3644 22.4799 20.3508 22.4799 20.3362Z" fill="#D3EFFB"/>
<defs>
<linearGradient id="paint0_linear" x1="3.2318" y1="0.312768" x2="27.003" y2="37.3275" gradientUnits="userSpaceOnUse">
<stop stop-color="#FECA52"/>
<stop offset="0.515625" stop-color="#FFCE5F"/>
<stop offset="1" stop-color="#FF644E"/>
</linearGradient>
<linearGradient id="paint1_linear" x1="0.40475" y1="32.3712" x2="1.1473" y2="40.6134" gradientUnits="userSpaceOnUse">
<stop stop-color="#FECA52"/>
<stop offset="0.515625" stop-color="#FFCE5F"/>
<stop offset="1" stop-color="#FF644E"/>
</linearGradient>
</defs>
</svg>

<svg width="49" height="38" viewBox="0 0 49 38" fill="none" xmlns="http://www.w3.org/2000/svg"><path d="M42.318.453H6.682A3.37 3.37 0 0 0 3.316 3.82v25.25a3.388 3.388 0 0 0 2.835 3.324l.607.484h34.961l1.13-.484a3.388 3.388 0 0 0 2.835-3.324V3.82A3.37 3.37 0 0 0 42.318.452z" fill="url(#a)"/><path d="M6.527 29.07V3.82A3.37 3.37 0 0 1 9.893.453h-3.21A3.37 3.37 0 0 0 3.315 3.82v25.25a3.388 3.388 0 0 0 2.835 3.324l.607.484h3.21l-.605-.484a3.388 3.388 0 0 1-2.836-3.324z" fill="#FF6C4D"/><path d="M42.094 6H7.105l-.605.638v21.758c0 .334.268.604.599.604H41.9c.33 0 .599-.27.599-.604V6.638L42.094 6z" fill="#FEFAC0"/><path d="M10.253 3H7.077c-.319 0-.577.302-.577.675V7h3.753l.247-.308V3.214L10.253 3z" fill="#FFC165"/><path d="M41.522 3.438H9.782v3.656h32.343v-3.04a.61.61 0 0 0-.603-.617z" fill="#FFCF86"/><path d="M47.938 32.394H1.062a.565.565 0 0 0-.562.567v1.952c0 1.449 1.174 2.634 2.608 2.634h42.784c1.434 0 2.608-1.185 2.608-2.634v-1.952a.565.565 0 0 0-.562-.567z" fill="url(#b)"/><path d="M6.34 34.913v-1.952c0-.313.252-.567.562-.567h-5.84a.565.565 0 0 0-.562.567v1.952c0 1.449 1.174 2.634 2.608 2.634h5.84c-1.434 0-2.608-1.185-2.608-2.634z" fill="#FF6C4D"/><path d="M17.499 32.394v1.31c0 .643.521 1.17 1.159 1.17h11.684c.638 0 1.16-.527 1.16-1.17v-1.31H17.498z" fill="#DDD"/><path d="M30.4 15.807l-.286.12v4.605l.285.094 4.04 1.894v-8.606l-4.04 1.893z" fill="#FFC658"/><path d="M30.114 17.652v2.88l.285.094 4.04 1.894v-2.88l-4.04-1.894-.285-.094z" fill="#FF6C4D"/><path d="M38.228 12.894a1.61 1.61 0 1 0 0-3.219 1.61 1.61 0 0 0 0 3.22z" fill="#FFD260"/><path d="M38.228 11.285c0-.596.324-1.114.805-1.393a1.61 1.61 0 1 0 0 2.785 1.608 1.608 0 0 1-.805-1.392z" fill="#FF6C4D"/><path d="M34.44 23.727a.724.724 0 0 1-.725-.724V13.43a.724.724 0 1 1 1.449 0v9.572c0 .4-.324.724-.724.724zM28.514 24.688H16.446a1.886 1.886 0 0 1-1.886-1.886v-9.17c0-1.042.845-1.886 1.886-1.886h12.068c1.041 0 1.885.844 1.885 1.885v9.171a1.886 1.886 0 0 1-1.885 1.886z" fill="#FFC658"/><path d="M17.876 22.745v-9.057c0-1.073.87-1.942 1.943-1.942h-3.316c-1.073 0-1.943.87-1.943 1.942v9.057c0 1.073.87 1.943 1.943 1.943h3.316a1.942 1.942 0 0 1-1.943-1.943z" fill="#FFD260"/><path d="M24.733 17.59l-3.108-2.12a.76.76 0 0 0-1.187.627v4.24a.76.76 0 0 0 1.187.627l3.108-2.12a.76.76 0 0 0 0-1.255z" fill="#E4F6FF"/><path d="M22.48 20.336v-4.239l.003-.042-.858-.585a.76.76 0 0 0-1.187.627v4.24a.76.76 0 0 0 1.187.627l.858-.585c0-.015-.003-.028-.003-.043z" fill="#D3EFFB"/><defs><linearGradient id="a" x1="3.232" y1=".313" x2="27.003" y2="37.328" gradientUnits="userSpaceOnUse"><stop stop-color="#FECA52"/><stop offset=".516" stop-color="#FFCE5F"/><stop offset="1" stop-color="#FF644E"/></linearGradient><linearGradient id="b" x1=".405" y1="32.371" x2="1.147" y2="40.613" gradientUnits="userSpaceOnUse"><stop stop-color="#FECA52"/><stop offset=".516" stop-color="#FFCE5F"/><stop offset="1" stop-color="#FF644E"/></linearGradient></defs></svg>
